X: 15056
T: Gerald Thomas' Burnt Potato
R: reel
M: 4/4
K: Bminor
BF F/F/F dF F/F/F|AFED B,/C/B, A,B,|DEFE DEFA|ecAc B/c/B dc|
BF F/F/F dF F/F/F|AFED B,2 A,B,|DE E/E/E DE F/G/A|ecAc B2:|
defe dc B/c/d|cded cBAc|d2 f/e/d cdec|
[1 AB c/B/A B2 Bc|d2 fe dcBd|c2 ed cBAc|d2 fd c2 ec|A2 c/B/A B2:|
[2 A2 cA B2 dc|BF F/F/F dF F/F/F|AFED B,2 A,B,|DE E/E/E DEFA|ecAc B2||

